svg/printer_pos_minus_outline.svg

<svg xmlns="http://www.w3.org/2000/svg" viewBox="0 0 24 24"><path d="M6 12h12v1.09c.33-.05.66-.09 1-.09s.67.04 1 .09V12a2 2 0 0 0-2-2h-1V4H7v6H6a2 2 0 0 0-2 2v7h9c0-.7.13-1.37.35-2H6zm3-6h6v4H9zm-2 9v-2h4v2zm16 3v2h-8v-2z"/></svg>

<svg xmlns="http://www.w3.org/2000/svg" id="mdi-printer-pos-minus-outline" viewBox="0 0 24 24"><path d="M6 12H18V13.09C18.33 13.04 18.66 13 19 13C19.34 13 19.67 13.04 20 13.09V12C20 10.9 19.11 10 18 10H17V4H7V10H6C4.89 10 4 10.9 4 12V19H13C13 18.3 13.13 17.63 13.35 17H6V12M9 6H15V10H9V6M7 15V13H11V15H7M23 18V20H15V18H23Z" /></svg>
